packages/foundations/assets/icons/functional/images/social/thumbs_up_24.svg

<svg width="24" height="24" viewBox="0 0 24 24" fill="none" xmlns="http://www.w3.org/2000/svg">
<g clip-path="url(#clip0_187_541)">
<path fill-rule="evenodd" clip-rule="evenodd" d="M15.7015 8.99602C16.2145 7.94402 16.7615 6.52302 16.7615 5.25002C16.7615 3.45702 15.5225 1.99902 13.9995 1.99902C12.6625 1.99902 12.2065 2.97702 11.6275 4.21502L11.4155 4.66702C10.3485 6.91402 8.27851 8.74802 7.17651 9.61802C6.74651 9.23602 6.18651 8.99602 5.56751 8.99602H4.43151C3.09051 8.99602 1.99951 10.087 1.99951 11.428V18.564C1.99951 19.906 3.09051 20.997 4.43151 20.997H5.56751C6.30251 20.997 6.95351 20.663 7.40051 20.146C9.83651 20.822 14.2045 22.001 15.0005 22.001C18.6055 22.001 22.0005 16.929 22.0005 12.997C22.0005 11.215 22.0005 8.99702 19.0005 8.99702L15.7015 8.99602ZM5.99951 18.564C5.99951 18.802 5.80551 18.997 5.56751 18.997H4.43151C4.19351 18.997 3.99951 18.803 3.99951 18.564V11.428C3.99951 11.19 4.19351 10.996 4.43151 10.996H5.56751C5.80551 10.996 5.99951 11.189 5.99951 11.428V18.564ZM7.99951 18.237V11.511C9.07551 10.711 11.8215 8.47402 13.2215 5.52502L13.4395 5.06202C13.6555 4.59902 13.9005 4.07602 13.9995 4.00002C14.2655 4.00002 14.7615 4.43002 14.7615 5.25102C14.7615 6.66802 13.6055 8.76502 13.1605 9.45302C12.9615 9.76102 12.9465 10.153 13.1215 10.474C13.2965 10.796 13.6335 10.996 13.9995 10.996H18.9995C19.9615 10.996 19.9995 10.996 19.9995 12.996C19.9995 16.138 17.2425 20 15.0165 20C14.4935 19.97 11.1665 19.112 7.99951 18.237Z" fill="#1A1C1F"/>
</g>
<defs>
<clipPath id="clip0_187_541">
<rect width="24" height="24" fill="white"/>
</clipPath>
</defs>
</svg>

<svg xmlns="http://www.w3.org/2000/svg" width="24" height="24" fill="none"><g clip-path="url(#a)"><path fill="#1A1C1F" fill-rule="evenodd" d="M15.702 8.996c.513-1.052 1.06-2.473 1.06-3.746 0-1.793-1.24-3.251-2.763-3.251-1.337 0-1.793.978-2.372 2.216l-.212.452C10.35 6.914 8.28 8.748 7.177 9.618a2.42 2.42 0 0 0-1.61-.622H4.433A2.435 2.435 0 0 0 2 11.428v7.136a2.435 2.435 0 0 0 2.432 2.433h1.136c.735 0 1.386-.334 1.833-.851 2.436.676 6.804 1.855 7.6 1.855 3.605 0 7-5.072 7-9.004 0-1.782 0-4-3-4zM6 18.564a.434.434 0 0 1-.432.433H4.432A.433.433 0 0 1 4 18.564v-7.136c0-.238.194-.432.432-.432h1.136c.238 0 .432.193.432.432zm2-.327v-6.726c1.076-.8 3.822-3.037 5.222-5.986l.218-.463c.216-.463.46-.986.56-1.062.265 0 .761.43.761 1.251 0 1.417-1.155 3.514-1.6 4.202a1 1 0 0 0 .838 1.543h5c.963 0 1 0 1 2C20 16.138 17.244 20 15.018 20c-.524-.03-3.85-.888-7.017-1.763" clip-rule="evenodd"/></g><defs><clipPath id="a"><path fill="#fff" d="M0 0h24v24H0z"/></clipPath></defs></svg>
